Obsidian/actions/24s/view-dual.svg

<svg height="24" viewBox="0 0 24 24" width="24" xmlns="http://www.w3.org/2000/svg"><path d="m0 1v14c5.3333-.002 10.667.005906 16 .003906v-13.9999998c-5.3333.002-10.667-.0059062-16-.0039062zm7 2v10.003906l-5 .001953v-10.0019528zm2 .0039062h5v10.0019528h-5z" fill="#bebebe" transform="translate(4 4)"/></svg>

<svg xmlns="http://www.w3.org/2000/svg" width="24" height="24" viewBox="0 0 24 24">
 <defs>
  <style id="current-color-scheme" type="text/css">
   .ColorScheme-Text { color:#bebebe; } .ColorScheme-Highlight { color:#4285f4; }
  </style>
 </defs>
 <path style="fill:currentColor" class="ColorScheme-Text" d="M 0 1 L 0 15 C 5.3333 14.998 10.667 15.005906 16 15.003906 L 16 1.0039062 C 10.6667 1.0059062 5.333 0.998 0 1 z M 7 3 L 7 13.003906 L 2 13.005859 L 2 3.0039062 L 7 3 z M 9 3.0039062 L 14 3.0039062 L 14 13.005859 L 9 13.005859 L 9 3.0039062 z" transform="translate(4 4)"/>
</svg>
